X: 3429
T: BEAUTIFUL STAR WALTZ
%R: waltz
B: James Kerr "Merry Melodies" v.3 p.48 #429
Z: 2016 John Chambers <jc:trillian.mit.edu>
M: 3/4
L: 1/4
K: G
|:\
d^cd | (g2B) | (d2G) | B3 |\
(A2B) | (c2F) | (G2A) | B3 |\
d2d | d^cd | (e2f) | g3 |\
gfe | dcB | Aed | G2z :|
|:\
d3- | d(^cd) | f3 | g3 |\
f3- | f(ef) |  g3 | a3 |\
b3- | bag | g3- | gfe |\
dgg | fef | g3- | g2z :|

%%sep 1 1 500
%%sep 1 1 500

